images/scale.svg

<svg width="5" height="15" xmlns="http://www.w3.org/2000/svg">
  <path d="M0 2h5v1H0V2zm2 3h3v1H2V5zm0 3h3v1H2V8zm0 3h3v1H2v-1zm0 3h3v1H2v-1z" fill="#43A8FF" fill-rule="nonzero"/>
</svg>

<?xml version="1.0" encoding="UTF-8"?>
<svg width="5px" height="15px" viewBox="0 0 5 15" version="1.1" xmlns="http://www.w3.org/2000/svg" xmlns:xlink="http://www.w3.org/1999/xlink">
    <!-- Generator: Sketch 51.3 (57544) - http://www.bohemiancoding.com/sketch -->
    <title>scale</title>
    <desc>Created with Sketch.</desc>
    <defs></defs>
    <g id="scale" stroke="none" stroke-width="1" fill="none" fill-rule="evenodd">
        <path d="M0,2 L5,2 L5,3 L0,3 L0,2 Z M2,5 L5,5 L5,6 L2,6 L2,5 Z M2,8 L5,8 L5,9 L2,9 L2,8 Z M2,11 L5,11 L5,12 L2,12 L2,11 Z M2,14 L5,14 L5,15 L2,15 L2,14 Z" id="Combined-Shape" fill="#43A8FF" fill-rule="nonzero"></path>
    </g>
</svg>
